X:31
T:The cashmere shawl
R:Reel
O:Ireland, Scotland
S:Kerr's Fourth
B:Kerr's Fourth
B:O'Neill's
Z:Transcription, chords:Mike Long
M:C|
L:1/8
K:C
"Am"A2 (AB) AGED|"Am"EGAB "G"c2 (BG)|"Am"AcBG "G"ED Aa|[1 \
"Em"gedB "Am"c2(BG):|[2 "Em"ge"G"dB "C"(cB)c2|]
|:"C"ecgc eccg|"C"ecgc "G"d2 (cd)|"C"ecgc eccg|[1 \
"F"afge "G"d2(cd):|[2 "F"ge"G"dB "Am"(cB) c2|]
